projects/samara2/images/icons/gym.svg

<svg width="79" height="79" viewBox="0 0 79 79" fill="none" xmlns="http://www.w3.org/2000/svg">
<path d="M13.7951 32.2299L21.6477 31.4004L24.1361 54.9569L16.2835 55.7864L13.7951 32.2299Z" fill="white"/>
<path d="M30.5532 27.8225C30.7252 27.8043 30.8919 27.7523 31.0438 27.6697C31.1957 27.587 31.3298 27.4753 31.4385 27.3408C31.5472 27.2063 31.6283 27.0517 31.6773 26.8858C31.7262 26.72 31.742 26.5461 31.7238 26.3741L31.4459 23.7553C31.4277 23.5833 31.3758 23.4166 31.2931 23.2648C31.2105 23.1129 31.0987 22.9787 30.9642 22.87C30.8297 22.7614 30.6751 22.6802 30.5093 22.6313C30.3434 22.5823 30.1696 22.5665 29.9976 22.5848L3.81832 25.355C3.64636 25.3733 3.47967 25.4252 3.32778 25.5079C3.17588 25.5905 3.04176 25.7023 2.93306 25.8368C2.82437 25.9713 2.74323 26.1258 2.69429 26.2917C2.64534 26.4576 2.62954 26.6314 2.6478 26.8034L2.9243 29.4222C2.94253 29.5942 2.99445 29.7609 3.07711 29.9128C3.15976 30.0647 3.27152 30.1988 3.40602 30.3075C3.54051 30.4162 3.6951 30.4973 3.86095 30.5463C4.0268 30.5952 4.20067 30.611 4.37263 30.5927L30.5532 27.8225Z" fill="white"/>
<path d="M15.5209 10.8755C14.7101 10.959 13.9457 11.2939 13.3347 11.8334C12.7237 12.3729 12.2966 13.0899 12.1133 13.8841L19.4867 13.1047C19.1418 12.365 18.5737 11.7521 17.8623 11.3522C17.1509 10.9523 16.332 10.7856 15.5209 10.8755Z" fill="white"/>
<path d="M7.46159 22.3201L25.7935 20.3806C25.9655 20.3624 26.1322 20.3105 26.2841 20.2278C26.436 20.1451 26.5701 20.0334 26.6788 19.8989C26.7875 19.7644 26.8686 19.6098 26.9176 19.444C26.9665 19.2781 26.9823 19.1042 26.9641 18.9323L26.6876 16.3147C26.6695 16.1427 26.6177 15.9758 26.5351 15.8238C26.4525 15.6717 26.3408 15.5375 26.2063 15.4286C26.0718 15.3198 25.9171 15.2386 25.7512 15.1895C25.5853 15.1405 25.4113 15.1247 25.2392 15.1429L6.90859 17.0837C6.73663 17.1019 6.56994 17.1538 6.41805 17.2365C6.26615 17.3191 6.13203 17.4309 6.02334 17.5654C5.91464 17.6999 5.8335 17.8545 5.78456 18.0203C5.73561 18.1862 5.71981 18.36 5.73807 18.532L6.01457 21.1509C6.05172 21.4977 6.22495 21.8155 6.49624 22.0348C6.76754 22.254 7.11472 22.3566 7.46159 22.3201Z" fill="white"/>
<path d="M34.5889 40.1279L36.2084 29.3115C36.4467 27.7548 37.2327 26.3343 38.4251 25.3055C39.6175 24.2768 41.1379 23.7074 42.7127 23.6998H62.6207C64.1959 23.7075 65.7166 24.2773 66.909 25.3065C68.1015 26.3358 68.8873 27.7569 69.125 29.3141L70.759 40.1687C72.4358 41.751 73.9011 43.5433 75.1185 45.5012L73.2528 26.8598C73.0625 24.9102 72.1524 23.1014 70.7001 21.7867C69.2479 20.472 67.3578 19.7458 65.3988 19.7498H39.9345C38.7752 19.7515 37.6306 20.0102 36.5833 20.5075C35.5359 21.0047 34.612 21.7281 33.8779 22.6254C33.9735 22.9019 34.0389 23.188 34.0727 23.4786L34.3492 26.0975C34.4395 26.9753 34.2333 27.8581 33.7634 28.605C33.2935 29.3519 32.5871 29.92 31.7567 30.2187L30.2109 45.542C31.4252 43.5522 32.8973 41.7317 34.5889 40.1279Z" fill="white"/>
<path d="M22.4439 76.3441C23.2552 76.2616 24.0205 75.9275 24.6324 75.3885C25.2444 74.8495 25.6725 74.1326 25.8567 73.3381L18.4768 74.1189C18.822 74.8583 19.3905 75.4708 20.1022 75.87C20.8139 76.2692 21.633 76.435 22.4439 76.3441Z" fill="white"/>
<path d="M34.153 61.8661C34.325 61.8479 34.4916 61.7959 34.6435 61.7133C34.7954 61.6306 34.9296 61.5189 35.0382 61.3844C35.1469 61.2499 35.2281 61.0953 35.277 60.9294C35.326 60.7636 35.3418 60.5897 35.3235 60.4178L35.047 57.7989C35.0288 57.6269 34.9769 57.4603 34.8942 57.3084C34.8116 57.1565 34.6998 57.0224 34.5653 56.9137C34.4308 56.805 34.2762 56.7238 34.1104 56.6749C33.9445 56.6259 33.7706 56.6101 33.5987 56.6284L7.41017 59.3934C7.23821 59.4116 7.07153 59.4635 6.91963 59.5462C6.76774 59.6289 6.63362 59.7406 6.52492 59.8751C6.41623 60.0096 6.33509 60.1642 6.28614 60.33C6.2372 60.4959 6.2214 60.6698 6.23966 60.8417L6.51879 63.4632C6.53601 63.6356 6.58727 63.8028 6.6696 63.9552C6.75194 64.1076 6.86371 64.2422 6.99843 64.351C7.13315 64.4599 7.28815 64.541 7.45444 64.5895C7.62072 64.638 7.79499 64.6531 7.96712 64.6337L34.153 61.8661Z" fill="white"/>
<path d="M76.3298 58.0003C76.0237 52.257 73.6383 46.8213 69.6188 42.7076C65.5993 38.594 60.2203 36.0834 54.4857 35.6444C48.751 35.2054 43.0526 36.868 38.4538 40.322C33.855 43.7759 30.67 48.7852 29.4933 54.415L33.3288 54.0095C33.8448 53.9547 34.3665 54.0021 34.8641 54.1491C35.3618 54.296 35.8256 54.5395 36.2291 54.8657C36.6326 55.1919 36.9678 55.5945 37.2157 56.0503C37.4636 56.5061 37.6193 57.0063 37.6738 57.5223L37.9503 60.1412C38.0051 60.6572 37.9576 61.1789 37.8107 61.6765C37.6638 62.1741 37.4203 62.638 37.094 63.0415C36.7678 63.4449 36.3653 63.7802 35.9095 64.0281C35.4536 64.276 34.9534 64.4317 34.4374 64.4862L34.1952 64.5125C34.396 64.9146 34.5252 65.3485 34.577 65.7949L34.8535 68.4125C34.9369 69.1734 34.7957 69.9421 34.4473 70.6236C34.0989 71.3052 33.5586 71.8699 32.893 72.2479C33.3785 73.0057 33.9101 73.733 34.4848 74.4257C34.983 75.0297 35.6079 75.5167 36.3154 75.8521C37.0228 76.1876 37.7954 76.3631 38.5783 76.3665H66.755C67.5265 76.3664 68.2886 76.1983 68.9885 75.8738C69.6884 75.5493 70.3092 75.0763 70.8077 74.4876C74.6811 69.8957 76.6561 63.9988 76.3298 58.0003ZM72.4549 58.8601H72.3443C72.0132 58.8612 71.6939 58.7376 71.4498 58.5138C71.2058 58.2901 71.0551 57.9826 71.0276 57.6527C70.6287 53.4263 68.7965 49.4635 65.8351 46.4218C62.8737 43.3802 58.9612 41.4428 54.747 40.931C54.0561 40.8559 53.3617 40.8176 52.6667 40.8165C52.3175 40.8165 51.9826 40.6777 51.7357 40.4308C51.4887 40.1839 51.35 39.849 51.35 39.4998C51.35 39.1506 51.4887 38.8157 51.7357 38.5688C51.9826 38.3218 52.3175 38.1831 52.6667 38.1831C53.4585 38.1846 54.2496 38.2286 55.0367 38.3148C59.8565 38.8994 64.3315 41.1149 67.7185 44.5934C71.1056 48.072 73.2011 52.6044 73.657 57.4381C73.6847 57.7852 73.5737 58.1291 73.3484 58.3946C73.1231 58.6601 72.8019 58.8256 72.4549 58.8548V58.8601Z" fill="white"/>
<path d="M30.5032 64.9011L12.1713 66.8392C11.9993 66.8574 11.8326 66.9093 11.6807 66.992C11.5288 67.0746 11.3947 67.1864 11.286 67.3209C11.1773 67.4554 11.0962 67.61 11.0473 67.7758C10.9983 67.9417 10.9825 68.1156 11.0008 68.2875L11.2773 70.9077C11.3144 71.2547 11.4878 71.5728 11.7594 71.7921C12.031 72.0113 12.3785 72.1138 12.7256 72.0769L31.0576 70.1388C31.2295 70.1205 31.3962 70.0686 31.5481 69.9859C31.7 69.9033 31.8341 69.7915 31.9428 69.657C32.0515 69.5225 32.1326 69.368 32.1816 69.2021C32.2305 69.0362 32.2463 68.8624 32.2281 68.6904L31.9516 66.0729C31.9335 65.9008 31.8817 65.734 31.7991 65.5819C31.7165 65.4299 31.6048 65.2956 31.4703 65.1868C31.3358 65.078 31.1811 64.9967 31.0152 64.9477C30.8493 64.8986 30.6753 64.8828 30.5032 64.9011Z" fill="white"/>
</svg>

<svg width="79" height="79" fill="none" xmlns="http://www.w3.org/2000/svg"><path d="M13.795 32.23l7.853-.83 2.488 23.557-7.852.83-2.489-23.557zm16.758-4.407a1.317 1.317 0 001.17-1.449l-.277-2.619a1.314 1.314 0 00-1.448-1.17l-26.18 2.77a1.317 1.317 0 00-1.17 1.448l.276 2.62a1.317 1.317 0 001.449 1.17l26.18-2.77zM15.52 10.876a3.908 3.908 0 00-3.407 3.008l7.374-.78a3.902 3.902 0 00-3.966-2.228zM7.462 22.32l18.332-1.94a1.315 1.315 0 001.17-1.448l-.276-2.617a1.317 1.317 0 00-1.449-1.172l-18.33 1.94a1.315 1.315 0 00-1.17 1.449l.276 2.619a1.317 1.317 0 001.447 1.17zm27.127 17.808l1.62-10.817a6.612 6.612 0 016.504-5.611H62.62a6.613 6.613 0 016.504 5.614l1.634 10.855a26.76 26.76 0 014.36 5.332L73.252 26.86a7.875 7.875 0 00-7.854-7.11H39.934a7.84 7.84 0 00-6.056 2.875c.096.277.16.563.195.854l.276 2.619a3.95 3.95 0 01-2.592 4.12L30.21 45.543a26.44 26.44 0 014.378-5.414zM22.444 76.344a3.91 3.91 0 003.413-3.006l-7.38.78a3.899 3.899 0 003.967 2.226zm11.709-14.478a1.317 1.317 0 001.17-1.448l-.276-2.62a1.315 1.315 0 00-1.448-1.17L7.41 59.393a1.315 1.315 0 00-1.17 1.449l.279 2.621a1.309 1.309 0 001.448 1.17l26.186-2.767z" fill="#fff"/><path d="M76.33 58a23.686 23.686 0 00-46.837-3.585l3.836-.405a3.948 3.948 0 014.345 3.512l.276 2.62a3.95 3.95 0 01-3.513 4.344l-.242.026c.201.403.33.837.382 1.283l.276 2.617a3.92 3.92 0 01-1.96 3.836 21.985 21.985 0 001.592 2.178 5.336 5.336 0 004.093 1.94h28.177a5.311 5.311 0 004.053-1.878A23.584 23.584 0 0076.33 58zm-3.875.86h-.11a1.317 1.317 0 01-1.317-1.207A18.606 18.606 0 0054.747 40.93a19.537 19.537 0 00-2.08-.114 1.317 1.317 0 010-2.634 22.35 22.35 0 012.37.132 21.276 21.276 0 0118.62 19.123 1.316 1.316 0 01-1.202 1.417v.005z" fill="#fff"/><path d="M30.503 64.901L12.171 66.84a1.315 1.315 0 00-1.17 1.448l.276 2.62a1.317 1.317 0 001.449 1.17l18.332-1.938a1.317 1.317 0 001.17-1.449l-.276-2.617a1.317 1.317 0 00-1.449-1.172z" fill="#fff"/></svg>
